public/avatar/item1/68.svg

<svg xmlns:xlink="http://www.w3.org/1999/xlink" height="65.4" width="80.15" xmlns="http://www.w3.org/2000/svg"><use height="19.35" transform="translate(45.15 30)" width="14.9" xlink:href="#a"/><defs><g id="a" fill-rule="evenodd"><path d="M25.95 17.15v-.3l-.1-.15-.15.1-.1.05v.05l-.25.25q-.25.25-.25.65l.1.65.05.1.85 1.05.45.05-.8-.95q-.2-.35-.05-.7l.35.85.8.65.8-.05.25-.55v-.2l-.05-.5-.3-.45-.85-.7-.2-.05h-.25l-.3.15m-.8-.6 1.05.05-.25-.05.5.2h.05q.7.25 1.2 1l.45 1.3v.1l-.1.55h.05l-.15.2.15-.1v.1l-.05.2v.05l-.85.15q-3.1-.85-2.25-3.55l.2-.2M22.8 21.3l-.15-.2q-.4-.5-.45-.95v-.2l.3-.5.15-.1.8-.75.05-.05.75-.8q-.05.35.05.7l.05.25-.1-.05-.25.15-.65.6-.65.35q1.1.2 1.7-.85l.35.7-1.55 1.25-.4.45m-5.35 7.3.1-.05q.85.7-.05.5l-.15-.25.1-.2m2.05-7 .05.1-.4.3-.05.05.05-.1.3-.35h.05m-3.2 1.15-.2.2v.2q.8.25.5-.25.5.6-.65.6l-.1-.25q.1-.4.45-.5m-.8 1.6h.05q.5.05.15-.25l-.2.25m.8.3h-.05q1.1.6-.25 1.3-.35.2-.45-.2-.15-.85.65-1.1l-.25-.15-1.3.15q.45-.4 1.15-.6h.05q.7.05.45.55v.05m1.85-2.1.2.05.2-.25q-.2 1.45-1.65 1.7l.8-.75q.95-.05.45-.75m-.3.25v-.2l.2-.05-.2.25m.75 7.6-.4-.3q.4-.6.35-1.4v-.35l.25.3v.1l-.2 1.6v.05m-2.55-5.55-.15.1-.05.15.1.25q.9.3.15-.5h-.05" fill="#ffbe46" transform="translate(-13.55 -16.2)"/><path d="M25.7 18q-.15.35.05.7l.8.95-.45-.05-.85-1.05-.05-.1-.1-.65q0-.4.25-.65l.25-.25v-.05l.1-.05.15-.1.1.15v.35l-.25.7v.1m-1.35.7.05.2q-.6 1.05-1.7.85l.65-.35.65-.6.25-.15.1.05m-8.05 4.05.1-.05h.05l.15.2q.3.5-.5.25v-.2l.2-.2m-.8 1.6.2-.25q.35.3-.15.25h-.05m2.2-1.05h-.05l.2-.5.2-.25.05-.05.05.05q.5.7-.45.75m.85 5.05L18.5 28l.45-.35q1.1 1.45-.35 2.75v-.05l.2-1.6v-.1l-.25-.3m-2.5-3.5h.05q.75.8-.15.5l-.1-.25.05-.15.15-.1" fill="#fff" transform="translate(-13.55 -16.2)"/><path d="m25.95 17.15.3-.15h.25l.2.05.85.7.3.45.05.5v.2l-.25.55-.8.05-.8-.65-.35-.85v-.1l.25-.7v-.05m2.1 3v-.05l.05-.2v-.1l-.15.1.15-.2h-.05l.1-.55v-.1l-.45-1.3q-.5-.75-1.2-1h-.05l-.5-.2.25.05-1.05-.05.05-.05q-1.05.9-.55 1.9.15 1.1 1.65 1.95 1.4.85 1.75-.2m-2-3.95q3.2 1.35 2.1 4.3-.2.5-.75.55l-1.15-.1q-.9.35-1.65.8-3.15 2.75-4.75 6.55-.15.35-.05.75.5 2.8-.6 5.3-.35.85-1.25 1.05-2.6.6-3.75-1.05l-.1-.05h.05l-.5-.95-.1-.6q.15-3.5 1.6-6.6h-.05l-.1-.05q-.2-.7.3-1.2l-1.1.15q.25-1.05 1.65-1.15l-.15-.2q-.55-1.15.75-1.3.95.65.55 1.1h.25l.4-.5-.15.05q-.35.1-.15-.2.5-.65 1.15-1l.1.25q.75-.7 1.6-1.3l.5-.35 3.35-2.9q-.15-.4.45-1 .5-.45 1.2-.35h.35m-1.7 2.5-.05-.25q-.1-.35-.05-.7l-.75.8-.05.05-.8.75-.15.1-.3.5v.2q.05.45.45.95l.15.2.5.35.15.05.75-.05.05-.05.1-.05 1.75-.75q-.6-.25-1.05-.8l-.3-.4-.35-.7-.05-.2M21.8 21l-.05-.1-.1-.65q-.7.35-1.3.9l-.7.7-.85.85.05.05v.05l-.2.45v.05l-.2.3-1.3.8-.15 1.05-.55.75-.5.15h-.05q-.85.75-1.25 1.95-.75 2.45-.55 4.95l.25 1.05.95-.2.15-.05 1.4-1.1h.05l.15-.2.15-.15.3-.25.1-.1.2-.05.35-.05h.1l.45.05.2.05.65.55v-1.55q-.25.45-.8.55h-.1l-.35-.05-.25-.05-.85-.5q-.35-.4-.4-1.05v-.05q0-.6.45-.9l.1-.4.15.25q.9.2.05-.5l-.1.05.05-.15.15-.35.2-.3.6-.45h.5l.05.05h.05l.25.15.2.1.1-.05q.2-.85.75-1.6l1.1-1.45.35-.5.5-.6 1-1.05-.05.2.1-.25v-.05l-.5-.1-.9 1.15v.05q-1.5 1.95-2.9 4l.8-1.65.2-.3.4-.7 1.4-1.65.4-.4.55-.5-.5-.35-.15-.2-.3-.5-.05-.15m-2.3.6h-.05l-.3.35-.05.1.05-.05.4-.3-.05-.1m-2.9 1.3-.15-.2h-.05l-.1.05q-.35.1-.45.5l.1.25q1.15 0 .65-.6m1.1.4-.8.75q1.45-.25 1.65-1.7l-.2.25-.2-.05-.05-.05-.05.05-.2.05v.2l-.2.5h.05m-1.4 1.35v-.05q.25-.5-.45-.55h-.05q-.7.2-1.15.6l1.3-.15.25.15q-.8.25-.65 1.1.1.4.45.2 1.35-.7.25-1.3h.05M19.5 33l-.1-.15.05-.05-.05-.05v-.05q-1.75-.75-2.7.75l-.4.5q-.9.85-1.8.55l.7.35q.45.35 1.2.35l1.25-.25q1.6-.65 1.85-1.95" fill="#371200" transform="translate(-13.55 -16.2)"/><path d="M28.05 20.15q-.35 1.05-1.75.2-1.5-.85-1.65-1.95-.5-1 .55-1.9l-.05.05-.2.2q-.85 2.7 2.25 3.55l.85-.15m-3.3-.55.3.4q.45.55 1.05.8l-1.75.75-.1.05-.05.05-.75.05-.15-.05-.5-.35.4-.45 1.55-1.25M18.6 30.4l.35.05h.15l.3-.45-.1.4.25-1.45q.05-1.3-.95-1.45l-.15.2.15-.2q1 .15.95 1.45l-.25 1.45.1-.4-.3.45h-.15l-.35-.05q1.45-1.3.35-2.75l-.45.35.05.35v.35q.05.8-.35 1.4l.4.3m.7 0-.05.05-.1.2v.05l-.05.05-.25.45-.5.05q-.3.05-.4-.2l-.2-.45-.25-.65.4-.35.15-.1.1-.35q-.1-.85.3-1.45l.05.3-.05-.3q-.4.6-.3 1.45l-.1.35-.15.1-.4.35.25.65.2.45q.1.25.4.2l.5-.05.25-.45.05-.05v-.05l.1-.2.05-.05" fill="#c47500" transform="translate(-13.55 -16.2)"/><path d="m21.35 20.6-.25.1q-1.15.95-2 2.1l2.3-2.05-.05-.15M15.3 34.1l-.95.2-.25-1.05q-.2-2.5.55-4.95.4-1.2 1.25-1.95h.05l.5-.15.55-.75.15-1.05 1.3-.8.2-.3v-.05l.2-.45v-.05l-.05-.05.85-.85.7-.7q.6-.55 1.3-.9l.1.65.05.1q-1.8 1.45-3.2 3.25l1.85-1.75 1.4-1.35.3.5q-1.9 1.7-3.4 3.7-1.2.9-1.65 2.25l-.3.95q-.25.85 0 1.55v.05q.05.65.4 1.05v.65h.05l.15.55.1-.05-.3.25-.1.05-.05.1q-1.15-2.05-.65-4.45l-.05.05q-.9 2.45.55 4.6h-.05l-1.4 1.1-.25-.5q-.1.3.1.55m2.55-6.3-.2.3-.15.35.2-.75.15.1m.2 3.9.25.05-.05.4h-.1l-.35.05-.25-.5.2-.05.2.05h.1m0-7.15q1-1.55 2.55-2.65l.8-.75-2.65 2.2-.7 1.2-.1.15.1-.15m3.8-3.15-.05.05-.45.5h.05l.45-.55m-3.4 3.9 1.25-1.55h-.05l-1.2 1.55-.45.5.45-.5m-2.75 1.5-.2.2q-1.15 2.25-1.25 4.85-.1 1.85 1.7 1.3.2-.05.05-.25l-.1-.15q-1.85-.5-1.35-2.9.35-1.65 1.15-3.05m-.45 2.55.5-2.15q-1.2 2.3-.45 4.85l.45.5q-.95-1.4-.5-3.2m3.8 2.75-.15.05-.1-.35.5.2.05.05-.25.05h-.05" fill="#95550f" transform="translate(-13.55 -16.2)"/><path d="m21.35 20.6.05.15-2.3 2.05q.85-1.15 2-2.1l.25-.1m.5.8-.45.55h-.05l.45-.5.05-.05m-3.8 3.15.7-1.2 2.65-2.2-.8.75q-1.55 1.1-2.55 2.65m.4.75 1.2-1.55h.05l-1.25 1.55m-2.75 1.5q-.8 1.4-1.15 3.05-.5 2.4 1.35 2.9l.1.15q.15.2-.05.25-1.8.55-1.7-1.3.1-2.6 1.25-4.85l.2-.2m-.45 2.55q-.45 1.8.5 3.2l-.45-.5q-.75-2.55.45-4.85l-.5 2.15m3.8 2.75h.05l.15.05-.2-.05" fill="#efad65" transform="translate(-13.55 -16.2)"/><path d="m21.8 21 .05.15-1.4 1.35-1.85 1.75q1.4-1.8 3.2-3.25m.35.65.15.2.5.35-.55.5-.4.4-1.4 1.65-.4.7-.2.3-.8 1.65q1.4-2.05 2.9-4v-.05l.9-1.15.5.1v.05l-.1.25.05-.2-1 1.05-.5.6-.35.5-1.1 1.45q-.55.75-.75 1.6l-.1.05-.2-.1-.25-.15H19l-.05-.05h-.5l-.6.45-.15-.1-.2.75-.05.15-.1.2-.1.4q-.45.3-.45.9-.25-.7 0-1.55l.3-.95q.45-1.35 1.65-2.25 1.5-2 3.4-3.7M17.2 31.2l.85.5h-.1l-.2-.05-.2.05.25.5-.2.05-.1.1-.1.05-.15-.55h-.05v-.65m1.1.55.35.05h.1q.55-.1.8-.55v1.55l-.65-.55-.2-.05-.45-.05.05-.4m-1.1.85-.15.15-.15.2q-1.45-2.15-.55-4.6l.05-.05q-.5 2.4.65 4.45l.05-.1.1-.05m-1.75 1.45-.15.05q-.2-.25-.1-.55l.25.5m3.65-1.95.25-.05-.05-.05-.5-.2.1.35.15-.05.2.05-.15-.05m.4.9q-.25 1.3-1.85 1.95l-1.25.25q-.75 0-1.2-.35l-.7-.35q.9.3 1.8-.55l.4-.5q.95-1.5 2.7-.75v.05l.05.05-.05.05.1.15" fill="#58330a" transform="translate(-13.55 -16.2)"/></g></defs></svg>

<?xml version="1.0" encoding="UTF-8" standalone="no"?>
<svg xmlns:xlink="http://www.w3.org/1999/xlink" height="65.4px" width="80.15px" xmlns="http://www.w3.org/2000/svg">
  <g transform="matrix(1.0, 0.0, 0.0, 1.0, 31.6, 13.8)">
    <use height="19.35" transform="matrix(1.0, 0.0, 0.0, 1.0, 13.55, 16.2)" width="14.9" xlink:href="#shape0"/>
  </g>
  <defs>
    <g id="shape0" transform="matrix(1.0, 0.0, 0.0, 1.0, -13.55, -16.2)">
      <path d="M25.95 17.15 L25.95 16.9 25.95 16.85 25.85 16.7 25.7 16.8 25.6 16.85 25.6 16.9 25.35 17.15 Q25.1 17.4 25.1 17.8 L25.2 18.45 25.25 18.55 26.1 19.6 26.55 19.65 25.75 18.7 Q25.55 18.35 25.7 18.0 L26.05 18.85 26.85 19.5 27.65 19.45 27.9 18.9 27.9 18.7 27.85 18.2 27.55 17.75 26.7 17.05 26.5 17.0 26.4 17.0 26.25 17.0 25.95 17.15 M25.15 16.55 L26.2 16.6 25.95 16.55 26.45 16.75 26.5 16.75 Q27.2 17.0 27.7 17.75 L28.15 19.05 28.15 19.15 28.05 19.7 28.1 19.7 27.95 19.9 28.1 19.8 28.1 19.9 28.05 20.1 28.05 20.15 27.2 20.3 Q24.1 19.45 24.95 16.75 L25.15 16.55 M22.8 21.3 L22.65 21.1 Q22.25 20.6 22.2 20.15 L22.2 19.95 22.5 19.45 22.65 19.35 23.45 18.6 23.5 18.55 24.25 17.75 Q24.2 18.1 24.3 18.45 L24.35 18.7 24.25 18.65 24.0 18.8 23.35 19.4 22.7 19.75 Q23.8 19.95 24.4 18.9 L24.75 19.6 23.2 20.85 22.8 21.3 M17.45 28.6 L17.55 28.55 Q18.4 29.25 17.5 29.05 L17.35 28.8 17.45 28.6 M19.5 21.6 L19.55 21.7 19.15 22.0 19.1 22.05 19.15 21.95 19.45 21.6 19.5 21.6 M16.3 22.75 L16.1 22.95 16.1 23.15 Q16.9 23.4 16.6 22.9 17.1 23.5 15.95 23.5 L15.85 23.25 Q15.95 22.85 16.3 22.75 M15.5 24.35 L15.55 24.35 Q16.05 24.4 15.7 24.1 L15.5 24.35 M16.3 24.65 L16.25 24.65 Q17.35 25.25 16.0 25.95 15.65 26.15 15.55 25.75 15.4 24.9 16.2 24.65 L15.95 24.5 14.65 24.65 Q15.1 24.25 15.8 24.05 L15.85 24.05 Q16.55 24.1 16.3 24.6 L16.3 24.65 M18.15 22.55 L18.35 22.6 18.55 22.35 Q18.35 23.8 16.9 24.05 L17.7 23.3 Q18.65 23.25 18.15 22.55 M17.85 22.8 L17.85 22.6 18.05 22.55 17.85 22.8 M18.6 30.4 L18.2 30.1 Q18.6 29.5 18.55 28.7 L18.55 28.35 18.8 28.65 18.8 28.75 18.6 30.35 18.6 30.4 M16.05 24.85 L15.9 24.95 15.85 25.1 15.95 25.35 Q16.85 25.65 16.1 24.85 L16.05 24.85" fill="#ffbe46" fill-rule="evenodd" stroke="none"/>
      <path d="M25.7 18.0 Q25.55 18.35 25.75 18.7 L26.55 19.65 26.1 19.6 25.25 18.55 25.2 18.45 25.1 17.8 Q25.1 17.4 25.35 17.15 L25.6 16.9 25.6 16.85 25.7 16.8 25.85 16.7 25.95 16.85 25.95 16.9 25.95 17.15 25.95 17.2 25.7 17.9 25.7 18.0 M24.35 18.7 L24.4 18.9 Q23.8 19.95 22.7 19.75 L23.35 19.4 24.0 18.8 24.25 18.65 24.35 18.7 M16.3 22.75 L16.4 22.7 16.45 22.7 16.6 22.9 Q16.9 23.4 16.1 23.15 L16.1 22.95 16.3 22.75 M15.5 24.35 L15.7 24.1 Q16.05 24.4 15.55 24.35 L15.5 24.35 M17.7 23.3 L17.65 23.3 17.85 22.8 18.05 22.55 18.1 22.5 18.15 22.55 Q18.65 23.25 17.7 23.3 M18.55 28.35 L18.5 28.0 18.95 27.65 Q20.05 29.1 18.6 30.4 L18.6 30.35 18.8 28.75 18.8 28.65 18.55 28.35 M16.05 24.85 L16.1 24.85 Q16.85 25.65 15.95 25.35 L15.85 25.1 15.9 24.95 16.05 24.85" fill="#ffffff" fill-rule="evenodd" stroke="none"/>
      <path d="M25.95 17.15 L26.25 17.0 26.4 17.0 26.5 17.0 26.7 17.05 27.55 17.75 27.85 18.2 27.9 18.7 27.9 18.9 27.65 19.45 26.85 19.5 26.05 18.85 25.7 18.0 25.7 17.9 25.95 17.2 25.95 17.15 M28.05 20.15 L28.05 20.1 28.1 19.9 28.1 19.8 27.95 19.9 28.1 19.7 28.05 19.7 28.15 19.15 28.15 19.05 27.7 17.75 Q27.2 17.0 26.5 16.75 L26.45 16.75 25.95 16.55 26.2 16.6 25.15 16.55 25.2 16.5 Q24.15 17.4 24.65 18.4 24.8 19.5 26.3 20.35 27.7 21.2 28.05 20.15 M26.05 16.2 Q29.25 17.55 28.15 20.5 27.95 21.0 27.4 21.05 L26.25 20.95 Q25.35 21.3 24.6 21.75 21.45 24.5 19.85 28.3 19.7 28.65 19.8 29.05 20.3 31.85 19.2 34.35 18.85 35.2 17.95 35.4 15.35 36.0 14.2 34.35 L14.1 34.3 14.15 34.3 13.65 33.35 13.55 32.75 Q13.7 29.25 15.15 26.15 L15.1 26.15 15.0 26.1 Q14.8 25.4 15.3 24.9 L14.2 25.05 Q14.45 24.0 15.85 23.9 L15.7 23.7 Q15.15 22.55 16.45 22.4 17.4 23.05 17.0 23.5 L17.25 23.5 17.65 23.0 17.5 23.05 Q17.15 23.15 17.35 22.85 17.85 22.2 18.5 21.85 L18.6 22.1 Q19.35 21.4 20.2 20.8 L20.7 20.45 24.05 17.55 Q23.9 17.15 24.5 16.55 25.0 16.1 25.7 16.2 L26.05 16.2 M24.35 18.7 L24.3 18.45 Q24.2 18.1 24.25 17.75 L23.5 18.55 23.45 18.6 22.65 19.35 22.5 19.45 22.2 19.95 22.2 20.15 Q22.25 20.6 22.65 21.1 L22.8 21.3 23.3 21.65 23.45 21.7 24.2 21.65 24.25 21.6 24.35 21.55 26.1 20.8 Q25.5 20.55 25.05 20.0 L24.75 19.6 24.4 18.9 24.35 18.7 M21.8 21.0 L21.75 20.9 21.65 20.25 Q20.95 20.6 20.35 21.15 L19.65 21.85 18.8 22.7 18.85 22.75 18.85 22.8 18.65 23.25 18.65 23.3 18.45 23.6 17.15 24.4 17.0 25.45 16.45 26.2 15.95 26.35 15.9 26.35 Q15.05 27.1 14.65 28.3 13.9 30.75 14.1 33.25 L14.35 34.3 15.3 34.1 15.45 34.05 16.85 32.95 16.9 32.95 17.05 32.75 17.2 32.6 17.5 32.35 17.6 32.25 17.8 32.2 18.15 32.15 18.25 32.15 18.7 32.2 18.9 32.25 19.55 32.8 19.55 31.95 19.55 31.25 Q19.3 31.7 18.75 31.8 L18.65 31.8 18.3 31.75 18.05 31.7 17.2 31.2 Q16.85 30.8 16.8 30.15 L16.8 30.1 Q16.8 29.5 17.25 29.2 L17.35 28.8 17.5 29.05 Q18.4 29.25 17.55 28.55 L17.45 28.6 17.5 28.45 17.65 28.1 17.85 27.8 18.45 27.35 18.8 27.35 18.9 27.35 18.95 27.35 19.0 27.4 19.05 27.4 19.3 27.55 19.5 27.65 19.6 27.6 Q19.8 26.75 20.35 26.0 L21.45 24.55 21.8 24.05 22.3 23.45 23.3 22.4 23.25 22.6 23.35 22.35 23.35 22.3 22.85 22.2 21.95 23.35 21.95 23.4 Q20.45 25.35 19.05 27.4 L19.85 25.75 20.05 25.45 20.45 24.75 21.85 23.1 22.25 22.7 22.8 22.2 22.3 21.85 22.15 21.65 21.85 21.15 21.8 21.0 M19.5 21.6 L19.45 21.6 19.15 21.95 19.1 22.05 19.15 22.0 19.55 21.7 19.5 21.6 M16.6 22.9 L16.45 22.7 16.4 22.7 16.3 22.75 Q15.95 22.85 15.85 23.25 L15.95 23.5 Q17.1 23.5 16.6 22.9 M17.7 23.3 L16.9 24.05 Q18.35 23.8 18.55 22.35 L18.35 22.6 18.15 22.55 18.1 22.5 18.05 22.55 17.85 22.6 17.85 22.8 17.65 23.3 17.7 23.3 M16.3 24.65 L16.3 24.6 Q16.55 24.1 15.85 24.05 L15.8 24.05 Q15.1 24.25 14.65 24.65 L15.95 24.5 16.2 24.65 Q15.4 24.9 15.55 25.75 15.65 26.15 16.0 25.95 17.35 25.25 16.25 24.65 L16.3 24.65 M19.5 33.0 L19.4 32.85 19.45 32.8 19.4 32.75 19.4 32.7 Q17.65 31.95 16.7 33.45 L16.3 33.95 Q15.4 34.8 14.5 34.5 L15.2 34.85 Q15.65 35.2 16.4 35.2 L17.65 34.95 Q19.25 34.3 19.5 33.0" fill="#371200" fill-rule="evenodd" stroke="none"/>
      <path d="M28.05 20.15 Q27.7 21.2 26.3 20.35 24.8 19.5 24.65 18.4 24.15 17.4 25.2 16.5 L25.15 16.55 24.95 16.75 Q24.1 19.45 27.2 20.3 L28.05 20.15 M24.75 19.6 L25.05 20.0 Q25.5 20.55 26.1 20.8 L24.35 21.55 24.25 21.6 24.2 21.65 23.45 21.7 23.3 21.65 22.8 21.3 23.2 20.85 24.75 19.6 M18.6 30.4 L18.95 30.45 19.1 30.45 19.4 30.0 19.3 30.4 19.55 28.95 Q19.6 27.65 18.6 27.5 L18.45 27.7 18.6 27.5 Q19.6 27.65 19.55 28.95 L19.3 30.4 19.4 30.0 19.1 30.45 18.95 30.45 18.6 30.4 Q20.05 29.1 18.95 27.65 L18.5 28.0 18.55 28.35 18.55 28.7 Q18.6 29.5 18.2 30.1 L18.6 30.4 M19.3 30.4 L19.25 30.45 19.15 30.65 19.15 30.7 19.1 30.75 18.85 31.2 18.35 31.25 Q18.05 31.3 17.95 31.05 L17.75 30.6 17.5 29.95 17.9 29.6 18.05 29.5 18.15 29.15 Q18.05 28.3 18.45 27.7 L18.5 28.0 18.45 27.7 Q18.05 28.3 18.15 29.15 L18.05 29.5 17.9 29.6 17.5 29.95 17.75 30.6 17.95 31.05 Q18.05 31.3 18.35 31.25 L18.85 31.2 19.1 30.75 19.15 30.7 19.15 30.65 19.25 30.45 19.3 30.4" fill="#c47500" fill-rule="evenodd" stroke="none"/>
      <path d="M21.35 20.6 L21.1 20.7 Q19.95 21.65 19.1 22.8 L21.4 20.75 21.35 20.6 M15.3 34.1 L14.35 34.3 14.1 33.25 Q13.9 30.75 14.65 28.3 15.05 27.1 15.9 26.35 L15.95 26.35 16.45 26.2 17.0 25.45 17.15 24.4 18.45 23.6 18.65 23.3 18.65 23.25 18.85 22.8 18.85 22.75 18.8 22.7 19.65 21.85 20.35 21.15 Q20.95 20.6 21.65 20.25 L21.75 20.9 21.8 21.0 Q20.0 22.45 18.6 24.25 L20.45 22.5 21.85 21.15 22.15 21.65 Q20.25 23.35 18.75 25.35 17.55 26.25 17.1 27.6 L16.8 28.55 Q16.55 29.4 16.8 30.1 L16.8 30.15 Q16.85 30.8 17.2 31.2 L17.2 31.85 17.25 31.85 17.4 32.4 17.5 32.35 17.2 32.6 17.1 32.65 17.05 32.75 Q15.9 30.7 16.4 28.3 L16.35 28.35 Q15.45 30.8 16.9 32.95 L16.85 32.95 15.45 34.05 15.2 33.55 Q15.1 33.85 15.3 34.1 M17.85 27.8 L17.65 28.1 17.5 28.45 17.7 27.7 17.85 27.8 M18.05 31.7 L18.3 31.75 18.25 32.15 18.15 32.15 17.8 32.2 17.55 31.7 17.75 31.65 17.95 31.7 18.05 31.7 M18.05 24.55 Q19.05 23.0 20.6 21.9 L21.4 21.15 18.75 23.35 18.05 24.55 17.95 24.7 18.05 24.55 M21.85 21.4 L21.8 21.45 21.35 21.95 21.4 21.95 21.85 21.4 M18.45 25.3 L19.7 23.75 19.65 23.75 18.45 25.3 18.0 25.8 18.45 25.3 M15.7 26.8 L15.5 27.0 Q14.35 29.25 14.25 31.85 14.15 33.7 15.95 33.15 16.15 33.1 16.0 32.9 L15.9 32.75 Q14.05 32.25 14.55 29.85 14.9 28.2 15.7 26.8 M15.25 29.35 L15.75 27.2 Q14.55 29.5 15.3 32.05 L15.75 32.55 Q14.8 31.15 15.25 29.35 M19.05 32.1 L18.9 32.15 18.8 31.8 19.3 32.0 19.35 32.05 19.1 32.1 19.05 32.1" fill="#95550f" fill-rule="evenodd" stroke="none"/>
      <path d="M21.35 20.6 L21.4 20.75 19.1 22.8 Q19.95 21.65 21.1 20.7 L21.35 20.6 M21.85 21.4 L21.4 21.95 21.35 21.95 21.8 21.45 21.85 21.4 M18.05 24.55 L18.75 23.35 21.4 21.15 20.6 21.9 Q19.05 23.0 18.05 24.55 M18.45 25.3 L19.65 23.75 19.7 23.75 18.45 25.3 M15.7 26.8 Q14.9 28.2 14.55 29.85 14.05 32.25 15.9 32.75 L16.0 32.9 Q16.15 33.1 15.95 33.15 14.15 33.7 14.25 31.85 14.35 29.25 15.5 27.0 L15.7 26.8 M15.25 29.35 Q14.8 31.15 15.75 32.55 L15.3 32.05 Q14.55 29.5 15.75 27.2 L15.25 29.35 M19.05 32.1 L19.1 32.1 19.25 32.15 19.05 32.1" fill="#efad65" fill-rule="evenodd" stroke="none"/>
      <path d="M21.8 21.0 L21.85 21.15 20.45 22.5 18.6 24.25 Q20.0 22.45 21.8 21.0 M22.15 21.65 L22.3 21.85 22.8 22.2 22.25 22.7 21.85 23.1 20.45 24.75 20.05 25.45 19.85 25.75 19.05 27.4 Q20.45 25.35 21.95 23.4 L21.95 23.35 22.85 22.2 23.35 22.3 23.35 22.35 23.25 22.6 23.3 22.4 22.3 23.45 21.8 24.05 21.45 24.55 20.35 26.0 Q19.8 26.75 19.6 27.6 L19.5 27.65 19.3 27.55 19.05 27.4 19.0 27.4 18.95 27.35 18.9 27.35 18.8 27.35 18.45 27.35 17.85 27.8 17.7 27.7 17.5 28.45 17.45 28.6 17.35 28.8 17.25 29.2 Q16.8 29.5 16.8 30.1 16.55 29.4 16.8 28.55 L17.1 27.6 Q17.55 26.25 18.75 25.35 20.25 23.35 22.15 21.65 M17.2 31.2 L18.05 31.7 17.95 31.7 17.75 31.65 17.55 31.7 17.8 32.2 17.6 32.25 17.5 32.35 17.4 32.4 17.25 31.85 17.2 31.85 17.2 31.2 M18.3 31.75 L18.65 31.8 18.75 31.8 Q19.3 31.7 19.55 31.25 L19.55 31.95 19.55 32.8 18.9 32.25 18.7 32.2 18.25 32.15 18.3 31.75 M17.2 32.6 L17.05 32.75 16.9 32.95 Q15.45 30.8 16.35 28.35 L16.4 28.3 Q15.9 30.7 17.05 32.75 L17.1 32.65 17.2 32.6 M15.45 34.05 L15.3 34.1 Q15.1 33.85 15.2 33.55 L15.45 34.05 M19.1 32.1 L19.35 32.05 19.3 32.0 18.8 31.8 18.9 32.15 19.05 32.1 19.25 32.15 19.1 32.1 M19.5 33.0 Q19.25 34.3 17.65 34.95 L16.4 35.2 Q15.65 35.2 15.2 34.85 L14.5 34.5 Q15.4 34.8 16.3 33.95 L16.7 33.45 Q17.65 31.95 19.4 32.7 L19.4 32.75 19.45 32.8 19.4 32.85 19.5 33.0" fill="#58330a" fill-rule="evenodd" stroke="none"/>
    </g>
  </defs>
</svg>
